X:1
T:E minor Oliver Brownson, 1783
T:Isaac Watts, 1719 (Psalm 25, Part 3)           66. 86. (S. M.) 
T:Westfield
T:Transcribed from Brownson's Select Harmony, 1783.
%%score [ 1 2 3 4 ]
L:1/8
Q:1/4=150
M:4/4
K:G
V:1 treble nm="Tr." snm="Tr."
V:2 treble nm="C." snm="C."
V:3 treble-8 nm="T." snm="T."
V:4 bass nm="B." snm="B."
V:1
"^1. Mine eyes and my  de – sire             Are  ev – er           to     the   Lord;          I     love         to plead his pro – mi   –    ses,""^3. When shall the sovereign grace     Of    my  for   –    gi  –ving   God             Restore me from those  dangerous ways""^2. Turn, turn  thee  to  my  soul,           Bring  thy  sal– va– tion    near;          When will  thy  hand  release   my     feet" B8 | %1
 B4 A4 | G4 (B2 G2) | [Fd]8- | [Fd]4 [DB]4 | G4 (G3 F) | G4 A4 | B8- | B4 G4 | (B2 A2 B2) c2 | %10
 d4 c4 | B4 e4 | d8- | d4 z4 | z8 | %15
 z4"^1. And     rest upon his word, And rest  up–on  his    word.""^2. Out     of the deadly snare? Out    of     the  deadly  snare?""^3. My wand'ring feet have trod?  My wand'ring feet  have trod?" B4 | %16
 G2 E2 F2 G2 | A2 A2 d2 c2 | B4 B4 | B8 |] %20
V:2
 E8 | D4 (F2 D2) | E4 D4 | D8 | z4 D4 | E4 D4 | G4 F4 | B,8 | z4 E4 | (G2 F2 E2) A2 | F4 F4 | %11
 (E2 D2) E4 | F8 | z8 | z8 | z8 | %16
 z4"^3. My          wand'ring           feet   have   trod?""^2. Out         of           the          dead – ly     snare?""^1. And        rest       up    –    on         his    word." G4 | %17
 F4 E4 | (E2 D2) D4 | E8 |] %20
V:3
"^1. Mine eyes and my  de – sire             Are  ev – er           to     the   Lord;          I     love         to plead his pro – mi   –    ses,        And""^2. Turn, turn  thee  to  my  soul,           Bring  thy  sal– va– tion    near;          When will  thy  hand  release   my     feet         Out""^3. When shall the sovereign grace     Of    my  for   –    gi  –ving   God             Restore me from those  dangerous ways         My" E8 | %1
 B4 d4 | B4 (G2 B2) | A8 | z4 G4 | B4 B4 | B4 ^d4 | e8 | z4 B4 | (e2 d4) c2 | B4 A4 | %11
 (d2 c2) (B2 Ac) | B8 | z4 B4 | %14
"^1. rest upon  his    word, ____________       And        rest  ______ up–on        his     word.""^2. of the dead–ly   snare?  __________        Out          of ________ the dead – ly    snare?""^3. My wand'ring feet have trod? ___        My            wand'  –   ring  feet   have  trod?" G2 E2 E2 FG | %15
 (A4 d2 c2 | B4) e4 | (d2 c2 B2) A2 | G4 F4 | E8 |] %20
V:4
"^_________________________________________________\nEdited by B. C. Johnston, 2016\nMeasure 17, Treble: last two notes changed from eighth-notes to quarter-notes." E,8 | %1
 G,4 F,4 | E,4 B,,4 | D,8- | D,4 B,,4 | E,4 B,,4 | E,4 F,4 | E,8- | E,4 E,4 | (E,2 F,2 G,2) A,2 | %10
 B,4 F,4 | G,4 E,4 | B,,8- | B,,4 z4 | %14
 z4"^1. And        rest upon his  word,   And        rest               up–on         his    word.""^2. Out          of the deadly snare?  Out        of                   the  dead – ly    snare?""^3. My wand'ring feet have trod?  My        wand'    –    ring   feet   have  trod?" E,4 | %15
"^4. The tumult of my thoughts\nDoth but enlarge my woe;\nMy spirit languishes, my heart\nIs desolate and low.\n5. With every morning light\nMy sorrow new begins;\nLook on my anguish and my pain,\nAnd pardon all my sins." D,2 D,2 B,,2 B,,2 | %16
 G,4 E,4 | %17
 (F,4"^6. Behold the hosts of hell, \nHow cruel is their hate!\nAgainst my life they rise, and join\nTheir fury with deceit.\n7. O keep my soul from death,\nNor put my hope to shame,\nFor I have placed my only trust\nIn my Redeemer's name." G,2) A,2 | %18
 B,4 B,,4 | %19
"^8. With humble faith I wait\nTo see thy face again:\nOf Isael it shall ne'er be said,\nHe sought the Lord in vain." E,8 |] %20

